src/svgs/clojure.svg

<?xml version="1.0" encoding="UTF-8" standalone="no"?>
<svg
   id="svg2"
   viewBox="0 0 32 32"
   version="1.1"
   xmlns="http://www.w3.org/2000/svg"
   xmlns:svg="http://www.w3.org/2000/svg">
  <defs
     id="defs11" />
  <style
     id="style2">.st0{fill:#231f20}</style>
  <path
     id="path10"
     class="st0"
     d="M 16.099609 7.1992188 C 13.099609 7.1992188 10.400781 8.7 8.8007812 11 C 9.6007813 10.5 10.500781 10.300781 11.300781 10.300781 C 12.300781 10.300781 13.199609 10.600781 13.599609 10.800781 C 13.699609 10.900781 13.800391 10.9 13.900391 11 C 14.600391 10.7 15.399219 10.5 16.199219 10.5 C 19.399219 10.5 21.900391 13.099219 21.900391 16.199219 C 21.900391 17.799219 21.199219 19.200781 20.199219 20.300781 L 21 20.300781 C 22 20.300781 23.100391 20.100391 23.900391 19.400391 C 24.400391 19.000391 24.899609 18.300781 25.099609 17.300781 C 25.099609 16.900781 25.199219 16.499219 25.199219 16.199219 C 25.099219 11.199219 21.099609 7.1992188 16.099609 7.1992188 z M 11.400391 11.900391 C 9.7003906 11.900391 7.9992188 12.800391 7.1992188 15.400391 C 7.0992188 15.800391 7.0996094 16.000391 7.0996094 16.400391 C 7.0996094 21.400391 11.099609 25.400391 16.099609 25.400391 C 19.099609 25.400391 21.8 23.899609 23.5 21.599609 C 22.6 21.799609 21.8 21.900391 21 21.900391 C 20.7 21.700391 20.500781 21.699219 20.300781 21.699219 C 19.700781 21.599219 19.099219 21.500391 18.699219 21.400391 C 17.899219 21.800391 17.099219 22 16.199219 22 C 12.999219 22 10.5 19.400781 10.5 16.300781 C 10.5 14.600781 11.300391 13.1 12.400391 12 C 12.100391 11.9 11.700391 11.900391 11.400391 11.900391 z M 13.400391 12.300781 C 12.200391 13.200781 11.400391 14.599219 11.400391 16.199219 C 11.400391 17.799219 12.200391 19.199609 13.400391 20.099609 C 13.700391 18.899609 14.4 17.8 15.5 15.5 C 15.4 15.3 15.400781 15.100391 15.300781 14.900391 C 15.000781 14.100391 14.599219 13.300781 14.199219 12.800781 C 13.899219 12.700781 13.600391 12.500781 13.400391 12.300781 z M 15.699219 16.400391 L 15.400391 17 C 15.000391 17.8 14.6 18.8 14.5 19.5 C 14.4 19.7 14.400391 20.000781 14.400391 20.300781 L 14.400391 20.699219 C 14.900391 20.899219 15.5 21 16 21 C 16.5 21 17 20.900781 17.5 20.800781 L 17.199219 20.5 C 16.699219 19.6 16.299219 18.400391 15.699219 16.400391 z " />
</svg>

<svg id="svg2" xmlns="http://www.w3.org/2000/svg" viewBox="0 0 32 32"><style>.st0{fill:#231f20}</style><path id="path10" class="st0" d="M15.7 16.4l-.3.6c-.4.8-.8 1.8-.9 2.5-.1.2-.1.5-.1.8v.4c.5.2 1.1.3 1.6.3s1-.1 1.5-.2l-.3-.3c-.5-.9-.9-2.1-1.5-4.1"/><path id="path12" class="st0" d="M13.4 12.3c-1.2.9-2 2.3-2 3.9s.8 3 2 3.9c.3-1.2 1-2.3 2.1-4.6-.1-.2-.1-.4-.2-.6-.3-.8-.7-1.6-1.1-2.1-.3-.1-.6-.3-.8-.5"/><path id="path14" class="st0" d="M20.3 21.7c-.6-.1-1.2-.2-1.6-.3-.8.4-1.6.6-2.5.6-3.2 0-5.7-2.6-5.7-5.7 0-1.7.8-3.2 1.9-4.3-.3-.1-.7-.1-1-.1-1.7 0-3.4.9-4.2 3.5-.1.4-.1.6-.1 1 0 5 4 9 9 9 3 0 5.7-1.5 7.4-3.8-.9.2-1.7.3-2.5.3-.3-.2-.5-.2-.7-.2"/><path id="path18" class="st0" d="M16.1 7.2c-3 0-5.7 1.5-7.3 3.8.8-.5 1.7-.7 2.5-.7 1 0 1.9.3 2.3.5.1.1.2.1.3.2.7-.3 1.5-.5 2.3-.5 3.2 0 5.7 2.6 5.7 5.7 0 1.6-.7 3-1.7 4.1h.8c1 0 2.1-.2 2.9-.9.5-.4 1-1.1 1.2-2.1 0-.4.1-.8.1-1.1-.1-5-4.1-9-9.1-9"/></svg>
